X: 1
T: Sparkle of Starlight
L: 1/8
M: 4/4
C: Rodney Miller
K: A
"A"EA ~A2 BcBA | "Bm"DA ~A2 BcBA | "F#m"EA ~A2 BcBA | "E"B3A cBAF | 
"A"EA ~A2 BcBA | "Bm"DA ~A2 BcBA | "F#m"EA ~A2 BcBA |1 "E"B3c "A"A3 F :|2 "E"B3c "A"A2 cd ||
"A"e2ce "Bm"f2cf | "F#m"ecBc "A"A4 | "D"dcBd "A"cBAc | "E"BAGA B2 cd |
"A"e2ce "Bm"f2cf | "F#m"ecBc "A"A4 | "D"dcBd "A"cBAc | "E"BAGE "A"A2 cd |
"A"e2ce "Bm"faaf | "F#m"ecBc "A"A4 | "D"dcBd "A"cBAc | "E"BAGA B2 AG |
"D"FddF "A"EccE  | "D"DABA "A"cBAE | "D"FGAd "E"cBAG |"D" A7 F |

